X:27
T: Liting ge
N: C1527
O: China, Guangxi, Wuzhou
S: II, 523]
R: Xiaodiao, Fengsuge, Baihua changtan]
M: 2/4
L: 1/16
K: C
c4B2A2 | d6e2 | d8
c4B2A2 | d4d4 | B4B2A2 | G6A2 | G8
B4d2A2 | G4d4 | A4A4 | G6A2 | G8
A4B4 | d4d4 | d4A2G2 | d6e2 | d8
A4B4 | d4d4 | G4B2A2 | G6A2 | G8
c4B2A2 | d4d4 | B4B2A2 | G6A2 | G8
d4G4 | A4d4 | d4d2A2 | G6A2 | G8
d4A4 | d4d4 | B4B2A2 | d6e2 | d8
d4A4 | G4d4 | A4d2A2 | G6A2 | G8
c2BAd2d2 | B2BAG3AG4
d2G2A2d2 | d2A2G3AG4
d2B2A3B | d2AGd2e2d4
d2A2G2d2 | A2dAG3AG4
c2BAd2d2 | B2BAG3AG4
B2AGd2d2 | B2A2G3AG4
B2d2A2G2 | B2AGd3ed4
B2AGd2d2 | A2A2G3G | A2A2G4- | G3AG4- | G4z4
c2BAd2d2 | B2BAG3A | G8
d4d2A2 | G2A2d4 | B4A4 | G6A2 | G8
d4A4 | d4d4 | B4B2G2 | d6e2 | d8
d4A4 | G4d4 | A4A4 | G6A2 | G8

